X:80
T:Quick Step – or Country Dance. JGi.080
T:Hexham Races,aka. JGi.080
T:Kenmore’s Awa’,aka. JGi.080
O:Tealby,Lincolnshire
M:6/8
L:1/8
Q:3/8=120
S:Joshua Gibbons MS,1823,Tealby,Lincs.
R:quick step
Z:VMP/R.Greig, 2009
K:D
DFA dAF|A2AA2F|DFA dAF|E2EE2F|
DFA dAF|ABc dcB|AGF GFE|D2DD2||
f/e/|d2A BAF|A2AA2 f/e/|d2A BAF|E2EE2f/e/|
d2A BAF|ABc dcB|AGF GFE|D2DD2||

